X:1
T:Title
%%score { ( 1 4 ) | ( 2 3 ) }
L:1/8
Q:1/4=92
M:4/4
K:Db
V:1 treble nm="Grand Piano"
V:4 treble 
V:2 bass 
V:3 bass 
V:1
 D>E D>E F>A B>A | d>c e>d c>e d>B | A>A B>A d>B A>F | z2 [CA]2 [D=G]2 _G2 | D>E D>E F>A B>A | %5
w: Anton~Dvorak,~arr. * * * * * * *|||||
 d>c e>d c>e d>B | A>A d>D [CE]2 [CA]2 | D8[K:bass] | F2 [df]>e [ce]2 [Bd]2 | %9
w: ||||
 [Bd]2 [Ac]>B [GB]2 A2 | [FA]2 [EG][GB] [FA]2 [EG]2 | FE D6 | F2 [df]>e [ce]2 [Bd]2 | %13
w: ||||
 [Bd]2 [Ac]>B [GB]2 A2 | AGAB [CF]2 [C_F]2 |[M:5/4] E4 A6 |[M:4/4] D>E D>E F>A B>A | %17
w: ||||
 d>c e>d c>e d>B | A>A B>A d>B A>F | z2 [CA]2 [D=G]2 _G2 | D>E D>E F>A B>A | d>c e>d c>e d>B | %22
w: |||||
 A>A d>D [CE]2 [CA]2 |[M:8/4] D8[K:bass] z8 |] %24
w: ||
V:2
 [D,F,A,]2 [D,F,A,]2 [D,F,A,D]2 [D,F,A,D]2 | [GB]2 [GB]2 [GB]2 [DB]2 | %2
 [DF]2 [DF]2 F2[K:bass] [A,F]2 | E,8 | [D,F,A,]2 [D,F,A,]2 [D,F,A,D]2 [D,F,A,]2 | D2 E2 [GB]2 G2 | %6
 [DF]2 F2[K:bass] z4 | [D,F,A,]8 | D,A,[K:treble] .D>c[K:bass] D,A,DA, | %9
 G,,D, .G,>[K:treble]G z2 F2 | E,G,B,G, A,,E,G,E, | [D,A,D][D,G,C][D,F,]D, F,2 A,2 | %12
 D,A,[K:treble] .D>c[K:bass] D,A,DA, | G,,D, .G,>[K:treble]G z2 F2 | %14
 [E,F][G,E][K:treble][B,F][G,G][K:bass] [A,,A,]2 [A,,A,]2 |[M:5/4] [A,,G,]2- [A,,G,]2- [A,,G,]6 | %16
[M:4/4] [D,F,A,]2 [D,F,A,]2 [D,F,A,D]2 [D,F,A,D]2 | D2 E2 [GB]2 [DB]2 | %18
 [DF]2 [DF]2 F2[K:bass] [A,F]2 | E,8 | [D,F,A,]2 [D,F,A,]2 [D,F,A,D]2 [D,F,A,]2 | D2 E2 [GB]2 G2 | %22
 [DF]2 F2[K:bass] z4 |[M:8/4] [D,F,A,]8 z8 |] %24
V:3
 x8 | D>C E>D C>E G->[B,G] | A,>A, B,>A, D>[K:bass]B, D->[F,D] | z2 A,,2 B,,2 [C,A,B,]2 | x8 | %5
 [GB]->[CGB] [GB]->[DGB] C>E D>B, | A,>A, D>[K:bass][D,F,] [A,,G,]2 [A,,G,]2 | x8 | %8
 z2[K:treble] z A,[K:bass] z4 | z2 z D,[K:treble] [=D,B,]4 | x8 | x8 | %12
 z2[K:treble] z A,[K:bass] z4 | z2 z D,[K:treble] [=D,B,]4 | x2[K:treble] x2[K:bass] x4 | %15
[M:5/4] x10 |[M:4/4] x8 | [GB]->[CGB] [GB]->[DGB] C>E G->[B,G] | %18
 A,>A, B,>A, D>[K:bass]B, D->[F,D] | z2 A,,2 B,,2 [C,A,B,]2 | x8 | %21
 [GB]->[CGB] [GB]->[DGB] C>E D>B, | A,>A, D>[K:bass][D,F,] [A,,G,]2 [A,,G,]2 |[M:8/4] x16 |] %24
V:4
 x8 | x8 | x8 | E8 | z4 z2 [DF]2 | x8 | x8 | z2[K:bass] A,,G,, D,,2 z2 | x8 | x8 | x8 | x8 | x8 | %13
 x8 | x8 |[M:5/4] C2- C2- C4- C3/2 z/ |[M:4/4] x8 | x8 | x8 | E8 | z4 z2 [DF]2 | x8 | x8 | %23
[M:8/4] z2[K:bass] A,,G,, .D,,4 z8 |] %24

